src/assets/images/icons/quote.svg

<svg width="59" height="48" viewBox="0 0 59 48" fill="none" xmlns="http://www.w3.org/2000/svg">
<path d="M0 48V31.9412C0 25.9412 1.05672 20.4118 3.17015 15.3529C5.28358 10.2941 8.86468 5.17647 13.9134 0L23.0716 7.2353C20.1363 10.1765 17.9055 12.9412 16.3791 15.5294C14.8527 18.1177 13.8547 20.7647 13.3851 23.4706H24.6567V48H0ZM34.3433 48V31.9412C34.3433 25.9412 35.4 20.4118 37.5134 15.3529C39.6269 10.2941 43.208 5.17647 48.2567 0L57.4149 7.2353C54.4796 10.1765 52.2488 12.9412 50.7224 15.5294C49.196 18.1177 48.198 20.7647 47.7284 23.4706H59V48H34.3433Z" fill="#E9E9E9"/>
</svg>

<svg fill="none" xmlns="http://www.w3.org/2000/svg" viewBox="0 0 59 48">
  <path d="M0 48V31.941c0-6 1.057-11.53 3.17-16.588C5.284 10.294 8.865 5.176 13.913 0l9.159 7.235c-2.936 2.942-5.166 5.706-6.693 8.294-1.526 2.589-2.524 5.236-2.994 7.942h11.272V48H0Zm34.343 0V31.941c0-6 1.057-11.53 3.17-16.588C39.627 10.294 43.208 5.176 48.257 0l9.158 7.235c-2.935 2.942-5.166 5.706-6.693 8.294-1.526 2.589-2.524 5.236-2.994 7.942H59V48H34.343Z" fill="#E9E9E9"/>
</svg>
